Papirus-nordic/32x32/places/folder-nordic-nextcloud.svg

<svg xmlns="http://www.w3.org/2000/svg" width="32" height="32" version="1"><rect width="25" height="16" x="3" y="12" rx="1.25" ry="1.25" opacity=".2"/><path d="M3 21.75c0 .692.557 1.25 1.25 1.25h22.5c.692 0 1.25-.558 1.25-1.25V8.25C28 7.557 27.442 7 26.75 7H14v-.75C14 5.557 13.443 5 12.75 5h-8.5C3.557 5 3 5.557 3 6.25" fill="#6c9b9a"/><rect width="25" height="16" x="3" y="10" rx="1.25" ry="1.25" opacity=".2"/><rect width="21" height="10" x="5" y="9" rx="1.25" ry="1.25" fill="#e4e4e4"/><rect width="25" height="16" x="3" y="11" rx="1.25" ry="1.25" fill="#82abaa"/><path d="M4.25 5C3.557 5 3 5.557 3 6.25v1C3 6.557 3.557 6 4.25 6h8.5c.693 0 1.25.557 1.25 1.25V8h12.75c.692 0 1.25.557 1.25 1.25v-1C28 7.557 27.442 7 26.75 7H14v-.75C14 5.557 13.443 5 12.75 5h-8.5z" fill="#fff" opacity=".1"/><path d="M22 16a3 3 0 0 0-3 3 3 3 0 0 0 3 3 3 3 0 0 0 3-3 3 3 0 0 0-3-3zm0 2a1 1 0 0 1 1 1 1 1 0 0 1-1 1 1 1 0 0 1-1-1 1 1 0 0 1 1-1zM8 16a3 3 0 0 0-3 3 3 3 0 0 0 3 3 3 3 0 0 0 3-3 3 3 0 0 0-3-3zm0 2a1 1 0 0 1 1 1 1 1 0 0 1-1 1 1 1 0 0 1-1-1 1 1 0 0 1 1-1zm7-3a4 4 0 0 0-4 4 4 4 0 0 0 4 4 4 4 0 0 0 4-4 4 4 0 0 0-4-4zm0 2a2 2 0 0 1 2 2 2 2 0 0 1-2 2 2 2 0 0 1-2-2 2 2 0 0 1 2-2z" fill="#4e6766"/></svg>

<svg xmlns="http://www.w3.org/2000/svg" width="32" height="32" version="1">
 <rect style="opacity:0.2" width="25" height="16" x="3" y="12" rx="1.25" ry="1.25"/>
 <path style="fill:#6c9b9a" d="m3 21.75c0 0.692 0.5575 1.25 1.25 1.25h22.5c0.692 0 1.25-0.558 1.25-1.25v-13.5c0-0.6925-0.558-1.25-1.25-1.25h-12.75v-0.75c0-0.6925-0.557-1.25-1.25-1.25h-8.5c-0.6925 0-1.25 0.5575-1.25 1.25"/>
 <rect style="opacity:0.2" width="25" height="16" x="3" y="10" rx="1.25" ry="1.25"/>
 <rect style="fill:#e4e4e4" width="21" height="10" x="5" y="9" rx="1.25" ry="1.25"/>
 <rect style="fill:#82abaa" width="25" height="16" x="3" y="11" rx="1.25" ry="1.25"/>
 <path style="fill:#ffffff;opacity:0.1" d="m4.25 5c-0.6925 0-1.25 0.5575-1.25 1.25v1c0-0.6925 0.5575-1.25 1.25-1.25h8.5c0.693 0 1.25 0.5575 1.25 1.25v0.75h12.75c0.692 0 1.25 0.5575 1.25 1.25v-1c0-0.6925-0.558-1.25-1.25-1.25h-12.75v-0.75c0-0.6925-0.557-1.25-1.25-1.25h-8.5z"/>
 <path style="fill:#4e6766" d="M 22,16 A 3,3 0 0 0 19,19 3,3 0 0 0 22,22 3,3 0 0 0 25,19 3,3 0 0 0 22,16 Z M 22,18 A 1,1 0 0 1 23,19 1,1 0 0 1 22,20 1,1 0 0 1 21,19 1,1 0 0 1 22,18 Z M 8,16 A 3,3 0 0 0 5,19 3,3 0 0 0 8,22 3,3 0 0 0 11,19 3,3 0 0 0 8,16 Z M 8,18 A 1,1 0 0 1 9,19 1,1 0 0 1 8,20 1,1 0 0 1 7,19 1,1 0 0 1 8,18 Z M 15,15 A 4,4 0 0 0 11,19 4,4 0 0 0 15,23 4,4 0 0 0 19,19 4,4 0 0 0 15,15 Z M 15,17 A 2,2 0 0 1 17,19 2,2 0 0 1 15,21 2,2 0 0 1 13,19 2,2 0 0 1 15,17 Z"/>
</svg>
